!!!OTL: Alter Mann und Schueler.
!!!OTL-incipit: Es steht ein Schloesschen im Oesterreich,
!!!ODT: 19 Jhrh
!!!ARE: Europa, Mitteleuropa, Deutschland (BRD), Rheinpfalz, Bergzabern
!!!YOR: 1, S. 283
!!    1860 aufgezeichnet (erste Haelfte des 19. Jh.)
!!!SCT: Q0025
!!!TXL: @@DE
!!!YEM: Copyright 1995, estate of Helmut Schaffrath.
**kern	**text
*ICvox	*
!! Irregular meter.
*MX	*
*k[f#]	*
*G:	*
!LO:TX:a:t=Bergʒabern (Rheinpfalʒ), erſte Hälfte 19. Jahrh.	!
{8d	1._Es
=1	=1
8g	ſteht
8b	ein
8g	Schlößchen
8g	.
16f#L	im
16gJ	.
=2	=2
8a	O-
8b	-ſter-
4g	-reich,
8r}	.
{8g	[dar-
=3	=3
8b	-inn
8dd	da
8.ddL	wohnt
16cc	.
8bJ	.
8a	ein
=4	=4
4g	alter
4a	Mann,
8r}	.
{8g	dar-
=5	=5
8b	-inn
8g	da
8bq	.
4.dd	wohnt
8ee	ein
8b	al-
8g	-ter
=6	=6
8aq	.
4cc	Mann,
8r}	.
{8b	viel
8a	Geld
8g	hat
=7	=7
8aq	.
4cc	er
4b	ge-
=8	=8
4a	-ſtoh-
4g	-len,
8r}	.
{8g	viel
=9	=9
8b	Geld
8dd	hat
8ddq	.
4cc	er
4b	ge-
=10	=10
4a	-ſtoh-
8g	-len.]
8r}	.
==	==
!!!AGN: Ballade, Betrug, Hinrichtung, Tod, Vergeltung
!! Verzierungen (Vorschlaege) in der 3. bis 5. Zeile.
!!!ONB: ESAC (Essen Associative Code) Database: BALLADE
!!!AMT: irregular
!!!AIN: vox
!!!EED: Helmut Schaffrath
!!!EEV: 1.0
!!!source: Deutsche Volkslieder mit ihren Melodien. Balladen. Herausgegeben vom Deutschen Volksliedarchiv. Erster Band Balladen. Berlin und Leipzig 1935.
!!!page: 283
!!!ENC: Anna Maria Matuszewska
!!!EEV: 2025/02/14
*-	*-
